X:1
T:The MANLY HEART
T:The MANLY HEART
T:Mozart
C:Mozart
%%score ( 1 2 ) ( 3 4 )
L:1/8
Q:1/4=96
M:6/8
K:G
V:1 treble 
V:2 treble 
V:3 treble 
V:4 treble 
V:1
"^Andantino""^Sy." GGG | A z z d'3 | b z"^So." d (dB)B | BGG FAc | cBd dgf | fed dcB | %6
{B} A z d dBB | BGG FAc | cBd g z f | efd de^c | d2 d afd | g z g afd | g z z ggg | a z a d>ef | %14
 g z z g (f/g/) (f/g/) | a2 c'/a/ g2 a/f/ | g2 z"^Sy." d'd'd' | b2 z (d/^c/=c/B/A/d/) | %18
 G z d (dBB) | BGG (F/G/A/B/)(c/d/) | dBd dgf | (f/e/)(g/f/)(e/d/) (d/c/)(e/d/)(c/B/) | %22
 (BA) z z2 z | z6 | z6 | z6 | z2 d afd | g2 g b/a/g/f/e/d/ | g z z ggg | a z a d>ef | %30
 g z z g f/g/ f/g/ | a2 c'/a/ g2 a/f/ | g2 z"^Sy." dg b/>g/ | (gf) z d>g b/g/ | %34
"^Sy." f z f dg b/>g/ | Tgfd d>g b/g/ | f z z b z a | g z f e z d | c/c/d/e/f/g/ a2 a | %39
 b z b a z a | g z z b z a | g z f e z d | c/c/d/e/f/g/ a2 a | b z b a z a | %44
 (g/4a/4g/4f/4) g/a/b/c'/ d'/b/g/d/c/B/ | A2 c'/a/ agf | (g/4a/4g/4f/4) g/a/b/c'/ d'/b/g/d/B/G/ | %47
 E2 c'/>a/ d'2 f | g2 z"^Sy." d'>bc'/a/ | ggg g z z |] %50
V:2
 x3 | x6 | x6 | x6 | x6 | x6 | x6 | x6 | x6 | x6 | x6 | x6 | x6 | x6 | x6 | x6 | x6 | x6 | x6 | %19
 x6 | x6 | x6 | x6 | x6 | x6 | x6 | x6 | x6 | x6 | x6 | x6 | x6 | x6 | x6 | x6 | x6 | x6 | x6 | %38
 c z z x3 | x6 | x6 | x6 | c z z x3 | x6 | x6 | x6 | x6 | x6 | x6 | x6 |] %50
V:3
"^[64.1]" GGG | D z z A2 F | G z B (BG)G | GDD DFA | AGB BAG | dcB BAG |"^[64.2]" F z B BGG | %7
 GDD DFA | AGB c z d | G2 G FGG | F2 d =c2 d |"^[64.3]" B z d =c2 d | B z z eee | c z c d2 d | %14
 e z z BBB | c2 c d2 d | G2 z"^[65.1]" ddd | g2 z (A2 F) | G z z z2 z | z6 | z6 | z6 | %22
"^[65.2]" z2 d dBB | BGG (F/G/A/B/)(c/d/) | cBd g2 f | e>fd d>e^c | d2 d =c2 d | %27
"^[65.3]" B2 d c2 d | B z z eee | c z c d2 d | e z z BBB | c2 c B2 A | G2 z"^[66].1" GB d/>B/ | %33
 (BA) z dBG | d z d GB d/>B/ | TBAd dBG | d z z g z d |"^[66].2" e z B c z G | A/A/B/c/d/e/ f2 f | %39
 g z e c z d | B z z g z d | e z B c z G |"^[66].2" A/A/B/c/d/e/ d2 d | g z e c z d | B2 z z2 z | %45
 z2 c d2 c |"^[p.67.1]" B2 z z2 z | z2 e/>c/ B2 A | G2 z g2 d | BBB B z z |] %50
V:4
 x3 | x6 | x6 | x6 | x6 | x6 | x6 | x6 | x6 | x6 | x6 | x6 | x6 | x6 | x6 | x6 | x6 | x6 | x6 | %19
 x6 | x6 | x6 | x6 | x6 | x6 | x6 | x6 | x6 | x6 | x6 | x6 | x6 | x6 | x6 | x6 | x6 | x6 | x6 | %38
 A z z x3 | x6 | x6 | x6 | A z z x3 | x6 | x6 | x6 | x6 | x6 | x6 | x6 |] %50

